X:1
T:O qual aspido
T:Tomaso Cecchino
T:Source : Canti Spirituali a uno, due et tre voci + BC ---Venetia---G.Vincenti---1613. Editor : André Vierendeels (07/11/16).
T:Notes : Original clefs C1, F4 ( BC : m30 and 31  in F3) " A due voci"
T:O qual aspido
T:©
T:©
T:©
T:©
T:©
C:Tomaso Cecchino
Z:©
%%score 1 2
L:1/8
Q:1/4=112
M:4/4
K:C
V:1 treble nm="Soprano" snm="S"
V:2 bass nm="MusicXML Part"
V:1
 B4 B2 B2- | BB B2 B3 c | d2 e3 d ^c2 | d6 cB | AB/A/ B/A/B/c/ d4- | d4 ^c4 | z2 e2 E2 ^F2 | %7
w: O qual as-|* pi- do sor- *|* do'a- ni- ma|cru- * *||* da,|se l'as- col-|
 G6 E2 | F3 E D4 | C4 c4 | ABcd c4 | d2 c2 ABcd | c4 c4 | z2 G3 A Bc | d3 c/B/ AG^FE | ^F3 G A4 | %16
w: tar t'è|gra- * *|ve, quel|nem- bo di- spie- ta-|to, quel nem- bo di- spie-|ta- to|di- * * *||* spie- ta-|
 G2 d4 c2 | B4 c3 A | B4 B2 c2- | c2 d2 e4 | z2 ^GA B4 | A4 z2 A2 | c4 z2 A2 | c4 z2 e2 | %24
w: to, su Gie-|su fla- gel-|la- to, su|_ Gie- su|fla- gel- la-|to, deh|fa, deh|fa, deh|
 c2 B2 e2 d2 | ^c2 d2 z2 d2- | dd A4 c2- | c2 G4 d2- | dc A3 G A2 | B8 | z2 c2 dcBA | G4 ^F4 | %32
w: fa che non t'ag-|gra- ve, vol-|* ger un guar-|* do so-||lo,|al san- * * *|* gue|
 G2 G2 A3 c | B2 G2 A4 | G4 z2 GF | ED C2 C2 c2- | cBAG FEFG | A4 E2 G2- | G2 FE D4 | C8 | %40
w: ch'a- bon- dan- te|pio- ve'al suo-|lo, pio- *|* * * ve, pio-||* ve'al suo-||lo,|
 c2 c2 c4- | c4 B2 A2 | GABc d2 D2 | FGAB c2 e2- | e2 d4 ^c2 | z4 d2 A2 | A3 A G4- | G2 c4 B2 | %48
w: a- ve- ra|_ sua vir-|tu _ _ _ _ ch'in|cor _ _ _ _ tra-|* boc- chi,|e s'hai|chiu- si l'o-|* rec- chi|
 z2 c2 B2 A2 | ^G4 G4 | z4 z2 G2- | GG ^F2 A4 | G8 |] %53
w: a- pr'al- men|gloc- chi,|a-|* pr'al- men gloc-|chi.|
V:2
"^BC""^Bass" G,4 G,2 G,2- | G,G, G,2 G,,4- | G,,2 C,3 B,, A,,2 | B,,6 C,2 |"^B" D,8 | A,,8 | %6
w: O qual as-|* pi- do sor-|* do'a- ni- ma|cru- *||da,|
 z2 C,2 C,2 D,2 | B,,4 C,4 | _B,,8 |"^B" F,,8 | z4 F,4 | D,E,F,G, F,4 | F,2 A,2 A,,B,,C,D, | %13
w: se l'as- col-|tar t'è|gra-|ve,|quel|nem- bo di- spie- ta-|to, quel nem- bo di- spie-|
"^B" C,6 B,,A,, | G,,A,,B,,C, D,4- | D,8 | G,,4 z4 | G,4 F,4 |"^B" E,4 E,4 | F,4 ^C,2 C,D, | E,8 | %21
w: ta- * *|* * * * ta-||to,|su Gie-|su, su|Gie- su fla- gel-|la-|
 A,,8 | z2 A,2 F,4 |"^B" z2 A,,2 C,4 | z2 E,2 C,2 B,,2 | A,,2 D,2 ^C,2 D,2 | z2 D,3 D, A,,2 | %27
w: to,|deh fa,|deh fa,|deh fa che|non s'ag- gra- ve,|vol- ger un|
 C,4 G,,4 |"^B" D,8 | B,,2 B,2 B,A,G,F, | E,4 D,4 | C,2 G,,2 D,3 C, | B,,2 C,2 A,,4 |"^B" G,,4 z4 | %34
w: guar- do|so-|lo, al san- * * *|* gue|ch'a- bon- dan- te|pio- vo'al suo-|lo,|
 z4 G,F,E,D, | C,B,,A,,G,, F,,2 F,,2 | F,3 E, D,C, D,2- | D,2 A,,2 C,2 B,,A,, |"^B" G,,8 | C,8 | %40
w: pio- * * *|* * * * * ve,|pio- * * * *|* ve'al suo- * *||lo,|
 A,,2 A,,2 A,,4 | C,4 D,4 | E,4 B,,4 |"^B" D,4 C,4 | B,,4 A,,4 | z4 D,2 D,2 | D,4 E,2 B,,2 | %47
w: a- ve- ra|sua vir|tu ch'in|cor tra-|boc- chi|e s'hai|chiu- si l'o-|
 C,4 G,,4 |"^B" C,4 D,4 | E,4 E,4 | z2 C,3 C, B,,2 | D,8 | G,,8 |] %53
w: rec- chi'ap-|pr'al- men|gloc- chi,|ap- pr'al- men|gloc-|chi.|

